modules/micon/icons/twitch.svg

<svg width="1792" height="1792" viewBox="0 0 1792 1792" xmlns="http://www.w3.org/2000/svg"><path d="M896 434v434h-145v-434h145zm398 0v434h-145v-434h145zm0 760l253-254v-795h-1194v1049h326v217l217-217h398zm398-1194v1013l-434 434h-326l-217 217h-217v-217h-398v-1158l109-289h1483z"/></svg>

<svg width="1792" height="1792" xmlns="http://www.w3.org/2000/svg"><path d="M896 434v434H751V434h145zm398 0v434h-145V434h145zm0 760l253-254V145H353v1049h326v217l217-217h398zM1692 0v1013l-434 434H932l-217 217H498v-217H100V289L209 0h1483z"/></svg>
